**harm	**harte	**timestamp	**phrase	**leadinstrument	**kern
*M3/4	*M3/4	*	*	*	*
*C:	*C:	*	*	*	*C:
1r;	N	0	.	r	1r;
1r;	N	0.752	.	r	1r;
=1	=1	=1	=1	=1	=1
*>A_verse	*>A_verse	*>A_verse	*>A_verse	*>A_verse	*>A_verse
2.V7	G:13	3.629	newline	voice	2G 2b 2dd 2ff
=2	=2	=2	=2	=2	=2
2.V7	G:13	5.324	.	voice	2G 2b 2dd 2ff
=3	=3	=3	=3	=3	=3
2.I	C:maj	7.018	.	voice	2C 2e 2g
=4	=4	=4	=4	=4	=4
2.I	C:maj	8.712	.	voice	2C 2e 2g
=5	=5	=5	=5	=5	=5
2.V7	G:13	10.406	newline	voice	2G 2b 2dd 2ff
=6	=6	=6	=6	=6	=6
2.V7	G:13	12.122	.	voice	2G 2b 2dd 2ff
=7	=7	=7	=7	=7	=7
2.I	C:maj	13.837	.	voice	2C 2e 2g
=8	=8	=8	=8	=8	=8
2.I	C:maj	15.553	.	voice	2C 2e 2g
=9	=9	=9	=9	=9	=9
2.IV	F:maj	17.268	newline	voice	2F 2a 2cc
=10	=10	=10	=10	=10	=10
2.I	C:maj	19.149	.	voice	2C 2e 2g
=11	=11	=11	=11	=11	=11
2.V	G:maj	21.03	.	voice	2G 2b 2dd
=12	=12	=12	=12	=12	=12
2.I	C:maj	22.911	.	voice	2C 2e 2g
=13	=13	=13	=13	=13	=13
2.IV	F:maj	24.791	newline	voice	2F 2a 2cc
=14	=14	=14	=14	=14	=14
2.I	C:maj	26.994	.	voice	2C 2e 2g
=15	=15	=15	=15	=15	=15
2.Vb	G:maj/b3	29.197	.	voice	2g 2B 2dd
=16	=16	=16	=16	=16	=16
2.-VII	B-:maj	31.4	.	voice	2B- 2dd 2ff
=17	=17	=17	=17	=17	=17
2.r	N	33.602	.	voice	2r
=18	=18	=18	=18	=18	=18
*>B_chorus	*>B_chorus	*>B_chorus	*>B_chorus	*>B_chorus	*>B_chorus
*M4/4	*M4/4	*M4/4	*M4/4	*M4/4	*M4/4
1V7	G:13	35.805	newline	voice	1G 1b 1dd 1ff
=19	=19	=19	=19	=19	=19
1V7	G:13	38.07	.	voice	1G 1b 1dd 1ff
=20	=20	=20	=20	=20	=20
1V7	G:13	40.335	.	voice	1G 1b 1dd 1ff
=21	=21	=21	=21	=21	=21
1V7	G:13	42.601	.	voice	1G 1b 1dd 1ff
=22	=22	=22	=22	=22	=22
2V7	G:13	44.866	newline	voice	2G 2b 2dd 2ff
2vo	G:dim	45.98	.	voice	2G 2b- 2dd-
=23	=23	=23	=23	=23	=23
2V	G:sus4(b7)	47.095	.	voice	2G 2b 2dd
4V7	G:13	48.21	.	voice	4G 4b 4dd 4ff
4V7	G:9(b13)	48.767	.	voice	4G 4b 4dd 4ff
=24	=24	=24	=24	=24	=24
1im7	C:min9	49.325	.	voice	1C 1e- 1g 1b
=25	=25	=25	=25	=25	=25
2im7	C:min7	51.554	.	voice	2C 2e- 2g 2b
2IVm7	F:9	52.669	.	voice	2F 2a 2cc 2ee
=26	=26	=26	=26	=26	=26
1im7	C:min9	53.783	newline	voice	1C 1e- 1g 1b
=27	=27	=27	=27	=27	=27
1-iiim7	E-:min9	55.997	.	voice	1E- 1g- 1b- 1dd
=28	=28	=28	=28	=28	=28
2-VII7	B-:maj7	58.21	.	voice	2B- 2dd 2ff 2aa
2-VII	B-:maj6	59.317	.	voice	2B- 2dd 2ff
=29	=29	=29	=29	=29	=29
4-VII+	B-:aug	60.423	.	voice	4B- 4dd 4ff#
2.-VII	B-:maj	60.977	.	voice	2B- 2dd 2ff
=30	=30	=30	=30	=30	=30
1VI7	A:7	62.637	newline	voice	1A 1cc# 1ee 1gg
=31	=31	=31	=31	=31	=31
1vic	A:(b5,b7,3)/b5	64.865	.	voice	1a 1cc 1E
=32	=32	=32	=32	=32	=32
1II7	D:7	67.094	.	voice	1D 1f# 1a 1cc
=33	=33	=33	=33	=33	=33
1II7	D:7	69.322	.	voice	1D 1f# 1a 1cc
=34	=34	=34	=34	=34	=34
*>A_verse	*>A_verse	*>A_verse	*>A_verse	*>A_verse	*>A_verse
1im7	C:min7	71.551	newline	voice	1C 1e- 1g 1b
=35	=35	=35	=35	=35	=35
1-iiim7	E-:min9	73.825	.	voice	1E- 1g- 1b- 1dd
=36	=36	=36	=36	=36	=36
1im7	C:min7	76.099	.	voice	1C 1e- 1g 1b
=37	=37	=37	=37	=37	=37
1-III	E-:maj	78.374	.	voice	1E- 1g 1b-
=38	=38	=38	=38	=38	=38
1im7	C:min7	80.648	newline	voice	1C 1e- 1g 1b
=39	=39	=39	=39	=39	=39
1-iiim7	E-:min9	82.872	.	voice	1E- 1g- 1b- 1dd
=40	=40	=40	=40	=40	=40
1-VII	B-:maj	85.095	.	voice	1B- 1dd 1ff
=41	=41	=41	=41	=41	=41
1-VII	B-:maj	87.319	.	voice	1B- 1dd 1ff
=42	=42	=42	=42	=42	=42
1im7	C:min7	89.542	newline	voice	1C 1e- 1g 1b
=43	=43	=43	=43	=43	=43
1-iiim7	E-:min9	91.773	.	voice	1E- 1g- 1b- 1dd
=44	=44	=44	=44	=44	=44
1im7	C:min7	94.004	.	voice	1C 1e- 1g 1b
=45	=45	=45	=45	=45	=45
1-III	E-:maj	96.234	.	voice	1E- 1g 1b-
=46	=46	=46	=46	=46	=46
1im7	C:min7	98.465	newline	voice	1C 1e- 1g 1b
=47	=47	=47	=47	=47	=47
1-iiim7	E-:min9	100.71	.	voice	1E- 1g- 1b- 1dd
=48	=48	=48	=48	=48	=48
1-VII	B-:maj	102.955	.	voice	1B- 1dd 1ff
=49	=49	=49	=49	=49	=49
1-VII	B-:maj	105.2	.	voice	1B- 1dd 1ff
=50	=50	=50	=50	=50	=50
*>B_chorus	*>B_chorus	*>B_chorus	*>B_chorus	*>B_chorus	*>B_chorus
1V7	G:13	107.445	newline	voice	1G 1b 1dd 1ff
=51	=51	=51	=51	=51	=51
1V7	G:13	109.58	.	voice	1G 1b 1dd 1ff
=52	=52	=52	=52	=52	=52
1V7	G:13	111.715	.	voice	1G 1b 1dd 1ff
=53	=53	=53	=53	=53	=53
1V7	G:13	113.85	.	voice	1G 1b 1dd 1ff
=54	=54	=54	=54	=54	=54
2V7	G:13	115.985	newline	voice	2G 2b 2dd 2ff
2vo	G:dim	117.064	.	voice	2G 2b- 2dd-
=55	=55	=55	=55	=55	=55
2V	G:sus4(b7)	118.144	.	voice	2G 2b 2dd
4V7	G:13	119.223	.	voice	4G 4b 4dd 4ff
4V7	G:9(b13)	119.763	.	voice	4G 4b 4dd 4ff
=56	=56	=56	=56	=56	=56
1im7	C:min9	120.303	.	voice	1C 1e- 1g 1b
=57	=57	=57	=57	=57	=57
2im7	C:min7	122.462	.	voice	2C 2e- 2g 2b
2IVm7	F:9	123.542	.	voice	2F 2a 2cc 2ee
=58	=58	=58	=58	=58	=58
1im7	C:min9	124.621	newline	voice	1C 1e- 1g 1b
=59	=59	=59	=59	=59	=59
1-iiim7	E-:min9	126.826	.	voice	1E- 1g- 1b- 1dd
=60	=60	=60	=60	=60	=60
2-VII7	B-:maj7	129.031	.	voice	2B- 2dd 2ff 2aa
2-VII	B-:maj6	130.133	.	voice	2B- 2dd 2ff
=61	=61	=61	=61	=61	=61
4-VII+	B-:aug	131.236	.	voice	4B- 4dd 4ff#
2.-VII	B-:maj	131.787	.	voice	2B- 2dd 2ff
=62	=62	=62	=62	=62	=62
1VI7	A:7	133.44	newline	voice	1A 1cc# 1ee 1gg
=63	=63	=63	=63	=63	=63
1vic	A:(b5,b7,3)/b5	135.647	.	voice	1a 1cc 1E
=64	=64	=64	=64	=64	=64
1II7	D:7	137.854	.	voice	1D 1f# 1a 1cc
=65	=65	=65	=65	=65	=65
1II7	D:7	140.061	.	voice	1D 1f# 1a 1cc
=66	=66	=66	=66	=66	=66
*>A_verse	*>A_verse	*>A_verse	*>A_verse	*>A_verse	*>A_verse
1im7	C:min7	142.268	newline	voice	1C 1e- 1g 1b
=67	=67	=67	=67	=67	=67
1-iiim7	E-:min9	144.425	.	voice	1E- 1g- 1b- 1dd
=68	=68	=68	=68	=68	=68
1im7	C:min7	146.581	.	voice	1C 1e- 1g 1b
=69	=69	=69	=69	=69	=69
1-iiim7	E-:min9	148.737	.	voice	1E- 1g- 1b- 1dd
=70	=70	=70	=70	=70	=70
1im7	C:min7	150.894	newline	voice	1C 1e- 1g 1b
=71	=71	=71	=71	=71	=71
1-iiim7	E-:min9	153.052	.	voice	1E- 1g- 1b- 1dd
=72	=72	=72	=72	=72	=72
1-VII	B-:maj	155.21	.	voice	1B- 1dd 1ff
=73	=73	=73	=73	=73	=73
1-VII	B-:maj	157.369	.	voice	1B- 1dd 1ff
=74	=74	=74	=74	=74	=74
1im7	C:min7	159.527	newline	voice	1C 1e- 1g 1b
=75	=75	=75	=75	=75	=75
1-iiim7	E-:min9	161.659	.	voice	1E- 1g- 1b- 1dd
=76	=76	=76	=76	=76	=76
1im7	C:min7	163.79	.	voice	1C 1e- 1g 1b
=77	=77	=77	=77	=77	=77
1-iiim7	E-:min9	165.922	.	voice	1E- 1g- 1b- 1dd
=78	=78	=78	=78	=78	=78
1im7	C:min7	168.053	newline	voice	1C 1e- 1g 1b
=79	=79	=79	=79	=79	=79
1-iiim7	E-:min9	170.169	.	voice	1E- 1g- 1b- 1dd
=80	=80	=80	=80	=80	=80
1-VII7	B-:maj7	172.284	.	voice	1B- 1dd 1ff 1aa
=81	=81	=81	=81	=81	=81
1-VII7	B-:maj7	174.4	.	voice	1B- 1dd 1ff 1aa
=82	=82	=82	=82	=82	=82
*>B_chorus	*>B_chorus	*>B_chorus	*>B_chorus	*>B_chorus	*>B_chorus
1V7	G:13	176.515	newline	voice	1G 1b 1dd 1ff
=83	=83	=83	=83	=83	=83
1V7	G:13	178.615	.	voice	1G 1b 1dd 1ff
=84	=84	=84	=84	=84	=84
1V7	G:13	180.715	.	voice	1G 1b 1dd 1ff
=85	=85	=85	=85	=85	=85
1V7	G:13	182.815	.	voice	1G 1b 1dd 1ff
=86	=86	=86	=86	=86	=86
2V7	G:13	184.915	newline	voice	2G 2b 2dd 2ff
2vo	G:dim	185.991	.	voice	2G 2b- 2dd-
=87	=87	=87	=87	=87	=87
2V	G:sus4(b7)	187.067	.	voice	2G 2b 2dd
4V7	G:13	188.143	.	voice	4G 4b 4dd 4ff
4V7	G:9(b13)	188.681	.	voice	4G 4b 4dd 4ff
=88	=88	=88	=88	=88	=88
*>A_verse	*>A_verse	*>A_verse	*>A_verse	*>A_verse	*>A_verse
1im7	C:min7	189.219	newline	voice	1C 1e- 1g 1b
=89	=89	=89	=89	=89	=89
1-iiim7	E-:min9	191.347	.	voice	1E- 1g- 1b- 1dd
=90	=90	=90	=90	=90	=90
1im7	C:min7	193.474	.	voice	1C 1e- 1g 1b
=91	=91	=91	=91	=91	=91
1-iiim7	E-:min9	195.601	.	voice	1E- 1g- 1b- 1dd
=92	=92	=92	=92	=92	=92
1im7	C:min7	197.728	newline	voice	1C 1e- 1g 1b
=93	=93	=93	=93	=93	=93
1-iiim7	E-:min9	199.847	.	voice	1E- 1g- 1b- 1dd
=94	=94	=94	=94	=94	=94
1-VII	B-:maj	201.967	.	voice	1B- 1dd 1ff
=95	=95	=95	=95	=95	=95
1-VII	B-:maj	204.086	.	voice	1B- 1dd 1ff
=96	=96	=96	=96	=96	=96
1im7	C:min7	206.205	newline	voice	1C 1e- 1g 1b
=97	=97	=97	=97	=97	=97
1-iiim7	E-:min9	208.319	.	voice	1E- 1g- 1b- 1dd
=98	=98	=98	=98	=98	=98
1im7	C:min7	210.432	.	voice	1C 1e- 1g 1b
=99	=99	=99	=99	=99	=99
1-iiim7	E-:min9	212.546	.	voice	1E- 1g- 1b- 1dd
=100	=100	=100	=100	=100	=100
1im7	C:min7	214.659	newline	voice	1C 1e- 1g 1b
=101	=101	=101	=101	=101	=101
1-iiim7	E-:min9	216.78	.	voice	1E- 1g- 1b- 1dd
=102	=102	=102	=102	=102	=102
1-VII7	B-:maj7	218.901	.	voice	1B- 1dd 1ff 1aa
=103	=103	=103	=103	=103	=103
1-VII7	B-:maj7	221.021	.	voice	1B- 1dd 1ff 1aa
=104	=104	=104	=104	=104	=104
*>B_chorus	*>B_chorus	*>B_chorus	*>B_chorus	*>B_chorus	*>B_chorus
1V7	G:13	223.142	newline	voice	1G 1b 1dd 1ff
=105	=105	=105	=105	=105	=105
1V7	G:13	225.275	.	voice	1G 1b 1dd 1ff
=106	=106	=106	=106	=106	=106
1V7	G:13	227.408	.	voice	1G 1b 1dd 1ff
=107	=107	=107	=107	=107	=107
1V7	G:13	229.541	.	voice	1G 1b 1dd 1ff
=108	=108	=108	=108	=108	=108
2V7	G:13	231.674	newline	voice	2G 2b 2dd 2ff
2vo	G:dim	232.739	.	voice	2G 2b- 2dd-
=109	=109	=109	=109	=109	=109
2V	G:sus4(b7)	233.803	.	voice	2G 2b 2dd
4V7	G:13	234.868	.	voice	4G 4b 4dd 4ff
4V7	G:9(b13)	235.401	.	voice	4G 4b 4dd 4ff
=110	=110	=110	=110	=110	=110
1im7	C:min9	235.933	.	voice	1C 1e- 1g 1b
=111	=111	=111	=111	=111	=111
2im7	C:min7	238.063	.	voice	2C 2e- 2g 2b
2IVm7	F:9	239.128	.	voice	2F 2a 2cc 2ee
=112	=112	=112	=112	=112	=112
1im7	C:min9	240.193	newline	voice	1C 1e- 1g 1b
=113	=113	=113	=113	=113	=113
1-iiim7	E-:min9	242.35	.	voice	1E- 1g- 1b- 1dd
=114	=114	=114	=114	=114	=114
2-VII7	B-:maj7	244.507	.	voice	2B- 2dd 2ff 2aa
2-VII	B-:maj6	245.586	.	voice	2B- 2dd 2ff
=115	=115	=115	=115	=115	=115
4-VII+	B-:aug	246.664	.	voice	4B- 4dd 4ff#
2.-VII	B-:maj	247.204	.	voice	2B- 2dd 2ff
=116	=116	=116	=116	=116	=116
1VI7	A:7	248.821	newline	voice	1A 1cc# 1ee 1gg
=117	=117	=117	=117	=117	=117
2vic	A:(b5,b7,3)/b5	250.653	.	voice	2a 2cc 2E
2II7	D:7	251.568	.	voice	2D 2f# 2a 2cc
=118	=118	=118	=118	=118	=118
1v	G:min	252.484	.	voice	1G 1b- 1dd
=119	=119	=119	=119	=119	=119
1v	G:min	254.315	.	voice	1G 1b- 1dd
=120	=120	=120	=120	=120	=120
1v	G:min	256.146	.	voice	1G 1b- 1dd
=121	=121	=121	=121	=121	=121
1v	G:min	257.977	.	voice	1G 1b- 1dd
1r;	N	259.808	.	r	1r;
1r;	N	264.072	.	r	1r;
*-	*-	*-	*-	*-	*-
!!!OTL: Is That All There Is
!!!COC: Peggy Lee
!!!BillboardChartDate: 1969/10/11
!!!BillboardPeak: 11
!!!BillboardWeeksOnChart: 10
!!!SampleTargetRank: 33
!!!SampleActualRank: 33
!!!SampleID#: 0059
!!!RDF**harmony: **recip + pitch class of root + harmonic quality
!!!RDF**harte: Chris Harte's syntax, used by MIREX
!!!RDF**phrase: newline = linebreak in original McGill transcription
!!!RDF**timestamp: McGill audio timestamp in seconds
!!!RDF**leadinstrument: original McGill primary instrumentation annotation
!!!RDT: 2017/01/12/
!!!ENC: Nathaniel Condit-Schultz
!!!EST: Awating manual error checking and editing.
